COLOR/action 16/16/align-horizontal-center.svg

<svg viewBox="0 0 24 24" xmlns="http://www.w3.org/2000/svg"><path d="m11.5 4v2h1v-2zm0 5v6h1v-6zm0 9v2h1v-2z" fill="#e95420"/><g fill="#c43ac4" transform="matrix(0 1 -1 0 1.728814 -12.105085)"><path d="m17.105085-13.271186v6h4 1v-1-4-1h-1-3.2z" stroke-width=".894427"/><path d="m26.105085-16.271186v12h4 1v-12h-1-3.2z" stroke-width="1.264911"/><g transform="matrix(0 -1 1 0 12.105085 1.728814)"><path d="m9 9.5v.5h1 1.5v-.5h-1.5zm3.5 0v.5h1.5 1v-.5h-1zm-6.5 9v.5h5.5v-.5zm6.5 0v.5h5.5v-.5zm-1 1v.5h1v-.5z" fill="#000" opacity=".2"/><path d="m11.5 4v.5h1v-.5zm-2.5 1v.5h2.5v-.5zm3.5 0v.5h2.5v-.5zm-6.5 9v.5h5.5v-.5zm6.5 0v.5h5.5v-.5z" fill="#fff" opacity=".3"/></g></g></svg>

<?xml version="1.0" encoding="UTF-8" standalone="no"?>
<svg
   xmlns:dc="http://purl.org/dc/elements/1.1/"
   xmlns:cc="http://creativecommons.org/ns#"
   xmlns:rdf="http://www.w3.org/1999/02/22-rdf-syntax-ns#"
   xmlns:svg="http://www.w3.org/2000/svg"
   xmlns="http://www.w3.org/2000/svg"
   xmlns:sodipodi="http://sodipodi.sourceforge.net/DTD/sodipodi-0.dtd"
   xmlns:inkscape="http://www.inkscape.org/namespaces/inkscape"
   viewBox="0 0 24 24"
   version="1.1"
   id="svg10"
   sodipodi:docname="align-horizontal-center.svg"
   inkscape:version="0.92.4 (5da689c313, 2019-01-14)">
  <metadata
     id="metadata16">
    <rdf:RDF>
      <cc:Work
         rdf:about="">
        <dc:format>image/svg+xml</dc:format>
        <dc:type
           rdf:resource="http://purl.org/dc/dcmitype/StillImage" />
      </cc:Work>
    </rdf:RDF>
  </metadata>
  <defs
     id="defs14" />
  <sodipodi:namedview
     pagecolor="#ffffff"
     bordercolor="#666666"
     borderopacity="1"
     objecttolerance="10"
     gridtolerance="10"
     guidetolerance="10"
     inkscape:pageopacity="0"
     inkscape:pageshadow="2"
     inkscape:window-width="960"
     inkscape:window-height="1016"
     id="namedview12"
     showgrid="false"
     inkscape:zoom="9.8333333"
     inkscape:cx="12"
     inkscape:cy="12"
     inkscape:window-x="0"
     inkscape:window-y="27"
     inkscape:window-maximized="0"
     inkscape:current-layer="g8" />
  <path
     d="m11.5 4v2h1v-2zm0 5v6h1v-6zm0 9v2h1v-2z"
     fill="#e95420"
     id="path2" />
  <g
     fill="#c43ac4"
     transform="matrix(0 1 -1 0 1.728814 -12.105085)"
     id="g8">
    <path
       d="m17.105085-13.271186v6h4 1v-1-4-1h-1-3.2z"
       id="path4"
       stroke-width=".894427" />
    <path
       d="m26.105085-16.271186v12h4 1v-12h-1-3.2z"
       id="path6"
       stroke-width="1.264911" />
    <path
       d="M 9 9.5 L 9 10 L 10 10 L 11.5 10 L 11.5 9.5 L 10 9.5 L 9 9.5 z M 12.5 9.5 L 12.5 10 L 14 10 L 15 10 L 15 9.5 L 14 9.5 L 12.5 9.5 z M 6 18.5 L 6 19 L 11.5 19 L 11.5 18.5 L 6 18.5 z M 12.5 18.5 L 12.5 19 L 18 19 L 18 18.5 L 12.5 18.5 z M 11.5 19.5 L 11.5 20 L 12.5 20 L 12.5 19.5 L 11.5 19.5 z "
       transform="rotate(-90,6.9169495,-5.1881355)"
       id="path825"
       style="fill:#000000;fill-opacity:1;opacity:0.2" />
    <path
       d="M 11.5 4 L 11.5 4.5 L 12.5 4.5 L 12.5 4 L 11.5 4 z M 9 5 L 9 5.5 L 11.5 5.5 L 11.5 5 L 9 5 z M 12.5 5 L 12.5 5.5 L 15 5.5 L 15 5 L 12.5 5 z M 6 14 L 6 14.5 L 11.5 14.5 L 11.5 14 L 6 14 z M 12.5 14 L 12.5 14.5 L 18 14.5 L 18 14 L 12.5 14 z "
       transform="rotate(-90,6.9169495,-5.1881355)"
       id="path830"
       style="fill:#ffffff;fill-opacity:1;opacity:0.3" />
  </g>
</svg>
